X: 084
M: 2/4
L: 1/8
K: G
|:\
gfgd | BdBG | EcAF | GDB,G, |\
gfgd | BdBG | edcB | {B2}A4 :|
|:\

